X:1
T:Title
%%score { ( 1 3 ) | 2 }
L:1/8
M:9/8
K:Eb
V:1 treble nm="Grand Piano"
V:3 treble 
V:2 bass 
V:1
 z3 z2[Q:1/4=93] B, EGc | B6 z3 | G3- G2 E EAB | c6 z3 | B3- B2 e eee | e6 z3 | %6
 [GB]3- [GB]2 F ABc | B6 z3 |[M:5/8] E-E- E3 |] %9
V:2
 z3 z3 z2 [E,A,E] | [E,G,E][E,G,][E,G,] [E,G,]2 [E,B,]/[E,B,]/ [B,,B,][C,G,][B,,B,] | %2
 [E,B,E]6 z2 [E,G,E] | [A,,A,][A,,A,][A,,A,] [A,,A,]2 A,,/A,,/ B,,[B,,F,][B,,A,] | %4
 [E,G,E]6 z2 [E,G,E] | [E,G,E][F,A,][G,B,] [A,C]2 [E,B,E]/[E,B,E]/ [E,CE][E,E][E,E] | %6
 [E,E]6 z2 [E,A,E] | [E,G,E][E,G,][E,G,] [E,G,]2 [E,B,E]/[E,B,E]/ [B,,B,][B,,F,][B,,A,] | %8
[M:5/8] [E,G,]-[E,G,]- [E,G,]3 |] %9
V:3
 x9 | z EE E2 [GB]/[GB]/ [DF][CE][DF] | x9 | EEE E2 [CEA]/[CEA]/ [B,DF][DA][Dc] | x9 | %5
 z EE E2 G/G/ A[GB][Ac] | x9 | z EE E2 G/G/ [DB][DA][DF] |[M:5/8] x5 |] %9

